docs/themes/v2/source/images/new/logo7.svg

<svg fill="none" height="56" viewBox="0 0 123 56" width="123" xmlns="http://www.w3.org/2000/svg"><path d="m123 0v56h-123v-56zm-96.5197 5.47486c-13.1618 0-20.68285 3.91061-20.68285 13.13964 0 7.8436 6.07965 10.2921 12.71905 11.4786l.7682.1315c.2567.0422.5139.0827.7714.1218l10.3414 1.5642c4.5439.7821 7.0509 1.5643 7.0509 4.8492 0 3.5977-3.6038 5.162-8.9312 5.162-5.014 0-10.6548-.9386-10.8115-6.7263h-12.69169c.13319 11.1687 9.66259 13.7482 18.77309 14.2707l.8025.041.7989.0312c1.062.0357 2.1102.0482 3.1287.0482 16.2955 0 21.6229-6.257 21.6229-14.0782 0-7.6648-5.7974-10.4805-13.3184-11.7319l-14.2586-2.3463c-2.9771-.4693-4.8574-1.7207-4.8574-3.9106 0-2.8157 2.9771-4.8492 7.6777-4.8492 4.544 0 9.8714.6257 10.4981 6.1005h12.6917c-.7834-11.88822-13.4751-13.29604-22.0929-13.29604zm57.8178 1.09497h-30.2408l.1567 41.76537h11.2815v-15.486h14.102c3.4471 0 5.9541 1.5642 5.9541 7.3519l.0006 1.0016c.0064 3.6546.0871 5.2491 1.0962 6.9761h12.3784c-2.037-2.19-2.1937-7.0391-2.1937-9.0727 0-4.067-.7834-10.324-5.7974-11.1061v-.1564c4.7006-1.7207 6.7376-4.8492 6.7376-10.0112 0-4.2235-1.8803-11.26257-13.4752-11.26257zm30.3979 0h-11.282v41.76537h11.282zm-34.7852 7.97767c2.6637 0 5.9542.9385 5.9542 5.162 0 3.9106-2.9771 5.3184-5.4841 5.3184h-15.042v-10.4804z" fill="#2c4653"/></svg>

<svg width="123" height="56" viewBox="0 0 123 56" fill="none" xmlns="http://www.w3.org/2000/svg">
<path d="M123 0V56H0V0H123ZM26.4803 5.47486C13.3185 5.47486 5.79745 9.38547 5.79745 18.6145C5.79745 26.4581 11.8771 28.9066 18.5165 30.0931L19.2847 30.2246C19.5414 30.2668 19.7986 30.3073 20.0561 30.3464L30.3975 31.9106C34.9414 32.6927 37.4484 33.4749 37.4484 36.7598C37.4484 40.3575 33.8446 41.9218 28.5172 41.9218C23.5032 41.9218 17.8624 40.9832 17.7057 35.1955H5.01401C5.1472 46.3642 14.6766 48.9437 23.7871 49.4662L24.5896 49.5072L25.3885 49.5384C26.4505 49.5741 27.4987 49.5866 28.5172 49.5866C44.8127 49.5866 50.1401 43.3296 50.1401 35.5084C50.1401 27.8436 44.3427 25.0279 36.8217 23.7765L22.5631 21.4302C19.586 20.9609 17.7057 19.7095 17.7057 17.5196C17.7057 14.7039 20.6828 12.6704 25.3834 12.6704C29.9274 12.6704 35.2548 13.2961 35.8815 18.7709H48.5732C47.7898 6.88268 35.0981 5.47486 26.4803 5.47486ZM84.2981 6.56983H54.0573L54.214 48.3352H65.4955V32.8492H79.5975C83.0446 32.8492 85.5516 34.4134 85.5516 40.2011L85.5522 41.2027C85.5586 44.8573 85.6393 46.4518 86.6484 48.1788H99.0268C96.9898 45.9888 96.8331 41.1397 96.8331 39.1061C96.8331 35.0391 96.0497 28.7821 91.0357 28V27.8436C95.7363 26.1229 97.7733 22.9944 97.7733 17.8324C97.7733 13.6089 95.893 6.56983 84.2981 6.56983ZM114.696 6.56983H103.414V48.3352H114.696V6.56983ZM79.9108 14.5475C82.5745 14.5475 85.865 15.486 85.865 19.7095C85.865 23.6201 82.8879 25.0279 80.3809 25.0279H65.3389V14.5475H79.9108Z" fill="#2C4653"/>
</svg>
